images/ico_fb.svg

<svg width="13" height="29" viewBox="0 0 13 29" fill="none" xmlns="http://www.w3.org/2000/svg">
<path fill-rule="evenodd" clip-rule="evenodd" d="M12.4923 14.5116H8.57154C8.57154 21.006 8.57154 29 8.57154 29H2.76172C2.76172 29 2.76172 21.0835 2.76172 14.5116H0V9.39091H2.76172V6.07878C2.76172 3.70665 3.84894 0 8.62493 0L12.9301 0.0171091V4.98782C12.9301 4.98782 10.314 4.98782 9.80533 4.98782C9.29667 4.98782 8.57348 5.2515 8.57348 6.38272V9.39191H13L12.4923 14.5116Z" fill="white"/>
</svg>

<svg width="13" height="29" fill="none" xmlns="http://www.w3.org/2000/svg"><path fill-rule="evenodd" clip-rule="evenodd" d="M12.492 14.512h-3.92V29h-5.81V14.512H0V9.39h2.762V6.079C2.762 3.707 3.849 0 8.625 0l4.305.017v4.97H9.805c-.508 0-1.232.264-1.232 1.396v3.009H13l-.508 5.12z" fill="#fff"/></svg>
